svg/streamline_stethoscope.svg

<svg width="99" height="99" viewBox="0 0 99 99" fill="none" xmlns="http://www.w3.org/2000/svg">
<path d="M12.3057 11.71H4.5625V37.1247C4.56437 43.16 6.96223 48.9477 11.2292 53.2159C15.4961 57.4842 21.2831 59.8839 27.3184 59.8876C33.3561 59.8876 39.1467 57.4896 43.4167 53.2209C47.6867 48.9523 50.0865 43.1624 50.0884 37.1247V11.71H42.3522M68.0639 30.1947C67.6811 31.7758 67.616 33.4171 67.8723 35.0236C68.1287 36.6301 68.7014 38.1696 69.5573 39.5531C70.4132 40.9365 71.5352 42.1362 72.8583 43.0827C74.1814 44.0292 75.6793 44.7036 77.265 45.0668C78.8507 45.43 80.4928 45.4748 82.0959 45.1985C83.6991 44.9223 85.2314 44.3305 86.6042 43.4575C87.9769 42.5846 89.1626 41.4477 90.0926 40.113C91.0226 38.7783 91.6784 37.2722 92.0219 35.6821C92.4048 34.101 92.4699 32.4596 92.2135 30.8532C91.9572 29.2467 91.3845 27.7071 90.5286 26.3237C89.6727 24.9403 88.5506 23.7406 87.2275 22.7941C85.9044 21.8476 84.4066 21.1732 82.8209 20.81C81.2352 20.4468 79.5931 20.402 77.9899 20.6783C76.3868 20.9545 74.8544 21.5463 73.4817 22.4193C72.109 23.2922 70.9233 24.429 69.9932 25.7638C69.0632 27.0985 68.4074 28.6046 68.0639 30.1947Z" stroke="#319F5A" stroke-width="8.05929" stroke-linecap="round" stroke-linejoin="round"/>
<path d="M27.7695 60.1071V68.6493C27.7733 75.5836 30.5296 82.2328 35.4329 87.1361C40.3362 92.0394 46.9854 94.7957 53.9197 94.7995C60.8552 94.7976 67.5062 92.0421 72.411 87.1386C77.3159 82.2351 80.0731 75.5849 80.0769 68.6493V46.6289" stroke="#319F5A" stroke-width="8.05929" stroke-linecap="round" stroke-linejoin="round"/>
</svg>

<?xml version="1.0" encoding="utf-8"?>
<!-- Generator: Adobe Illustrator 25.4.1, SVG Export Plug-In . SVG Version: 6.00 Build 0)  -->
<svg version="1.1" id="Capa_1" xmlns="http://www.w3.org/2000/svg" xmlns:xlink="http://www.w3.org/1999/xlink" x="0px" y="0px"
	 viewBox="0 0 99 99" style="enable-background:new 0 0 99 99;" xml:space="preserve">
<style type="text/css">
	.st0{fill:none;stroke:#FFFFFF;stroke-width:8.0593;stroke-linecap:round;stroke-linejoin:round;}
</style>
<path class="st0" d="M12.3,11.7H4.6v25.4c0,6,2.4,11.8,6.7,16.1c4.3,4.3,10.1,6.7,16.1,6.7c6,0,11.8-2.4,16.1-6.7
	c4.3-4.3,6.7-10.1,6.7-16.1V11.7h-7.7 M68.1,30.2c-0.4,1.6-0.4,3.2-0.2,4.8c0.3,1.6,0.8,3.1,1.7,4.5c0.9,1.4,2,2.6,3.3,3.5
	c1.3,0.9,2.8,1.6,4.4,2c1.6,0.4,3.2,0.4,4.8,0.1c1.6-0.3,3.1-0.9,4.5-1.7c1.4-0.9,2.6-2,3.5-3.3c0.9-1.3,1.6-2.8,1.9-4.4
	c0.4-1.6,0.4-3.2,0.2-4.8c-0.3-1.6-0.8-3.1-1.7-4.5c-0.9-1.4-2-2.6-3.3-3.5c-1.3-0.9-2.8-1.6-4.4-2c-1.6-0.4-3.2-0.4-4.8-0.1
	c-1.6,0.3-3.1,0.9-4.5,1.7c-1.4,0.9-2.6,2-3.5,3.3C69.1,27.1,68.4,28.6,68.1,30.2z"/>
<path class="st0" d="M27.8,60.1v8.5c0,6.9,2.8,13.6,7.7,18.5s11.6,7.7,18.5,7.7c6.9,0,13.6-2.8,18.5-7.7c4.9-4.9,7.7-11.6,7.7-18.5
	v-22"/>
</svg>
